X: 1
T: Colonel McBain's
M: 4/4
L: 1/8
R: reel
K: Edor
F|GEBE GEEG|FDAD FDDF|GEBE GEEB|AGFG E3F|
GEBE GEEB|ABAG FDDF|~G3F GBdB|AGFG E3:|
|:F|~G3F GBdB|ABAG FDDF|Eeed efge|fedf e3d|
efed BcdB|ABAG FDDF|~G3F GBdB|AGFG E3:|
